; generated by Slic3r 0.9.10b on 2013-09-02 at 13:31:24

; layer_height = 0.1
; perimeters = 2
; top_solid_layers = 3
; bottom_solid_layers = 3
; fill_density = 1
; perimeter_speed = 90
; infill_speed = 180
; travel_speed = 260
; nozzle_diameter = 0.5
; filament_diameter = 3
; extrusion_multiplier = 1
; perimeters extrusion width = 0.85mm
; infill extrusion width = 1.98mm
; solid infill extrusion width = 0.85mm
; top infill extrusion width = 0.85mm
; first layer extrusion width = 1.00mm

G21 ; set units to millimeters
M107
M190 S5 ; wait for bed temperature to be reached
M104 S245 ; set temperature

M109 S245 ; wait for temperature to be reached
G90 ; use absolute coordinates
G92 E0
M82 ; use absolute distances for extrusion
G1 Z0.500 F15600.000
G1 X85.034 Y84.670
G1 X85.474 Y84.250 F1620.000 E0.03841
G1 X86.124 Y83.710 E0.09177
G1 X88.344 Y82.060 E0.26643
G1 X89.054 Y81.590 E0.32020
G1 X89.584 Y81.290 E0.35866
G1 X90.234 Y80.970 E0.40440
G1 X92.764 Y79.870 E0.57861
G1 X93.574 Y79.580 E0.63294
G1 X94.154 Y79.410 E0.67110
G1 X94.894 Y79.230 E0.71919
G1 X97.614 Y78.750 E0.89360
G1 X98.454 Y78.660 E0.94695
G1 X99.424 Y78.620 E1.00825
G1 X102.554 Y78.780 E1.20616
G1 X103.424 Y78.880 E1.26145
G1 X104.024 Y78.990 E1.29997
G1 X104.764 Y79.170 E1.34806
G1 X107.404 Y79.960 E1.52207
G1 X108.144 Y80.220 E1.57160
G1 X108.704 Y80.460 E1.61007
G1 X109.434 Y80.830 E1.66175
G1 X111.824 Y82.210 E1.83602
G1 X112.524 Y82.680 E1.88926
G1 X113.014 Y83.050 E1.92803
G1 X113.584 Y83.530 E1.97509
G1 X115.594 Y85.420 E2.14931
G1 X116.174 Y86.040 E2.20292
G1 X116.564 Y86.510 E2.24148
G1 X117.014 Y87.110 E2.28884
G1 X118.534 Y89.410 E2.46293
G1 X118.974 Y90.170 E2.51838
G1 X119.244 Y90.720 E2.55707
G1 X119.524 Y91.390 E2.60292
G1 X120.474 Y93.980 E2.77712
G1 X120.714 Y94.780 E2.82986
G1 X120.854 Y95.380 E2.86877
G1 X120.994 Y96.150 E2.91819
G1 X121.314 Y98.890 E3.09238
G1 X121.354 Y99.690 E3.14296
G1 X121.354 Y100.300 E3.18148
G1 X121.314 Y101.100 E3.23206
G1 X120.994 Y103.840 E3.40626
G1 X120.854 Y104.610 E3.45568
G1 X120.714 Y105.210 E3.49458
G1 X120.474 Y106.010 E3.54732
G1 X119.524 Y108.600 E3.72152
G1 X119.224 Y109.310 E3.77019
G1 X118.954 Y109.850 E3.80832
G1 X118.544 Y110.560 E3.86009
G1 X117.024 Y112.870 E4.03470
G1 X116.564 Y113.480 E4.08294
G1 X116.174 Y113.950 E4.12151
G1 X115.594 Y114.570 E4.17512
G1 X113.584 Y116.460 E4.34934
G1 X113.014 Y116.940 E4.39640
G1 X112.524 Y117.310 E4.43517
G1 X111.804 Y117.790 E4.48981
G1 X109.414 Y119.160 E4.66376
G1 X108.794 Y119.470 E4.70753
G1 X108.234 Y119.720 E4.74626
G1 X107.404 Y120.030 E4.80221
G1 X104.764 Y120.820 E4.97621
G1 X103.914 Y121.020 E5.03135
G1 X103.314 Y121.120 E5.06976
G1 X102.584 Y121.200 E5.11614
G1 X99.824 Y121.360 E5.29071
G1 X99.084 Y121.360 E5.33744
G1 X98.474 Y121.330 E5.37600
G1 X97.614 Y121.240 E5.43061
G1 X94.894 Y120.760 E5.60501
G1 X94.054 Y120.550 E5.65969
G1 X93.474 Y120.370 E5.69804
G1 X92.784 Y120.120 E5.74438
G1 X90.254 Y119.030 E5.91833
G1 X89.584 Y118.700 E5.96549
G1 X89.054 Y118.400 E6.00395
G1 X88.344 Y117.930 E6.05772
G1 X86.124 Y116.280 E6.23238
G1 X85.474 Y115.740 E6.28574
G1 X85.034 Y115.320 E6.32415
G1 X84.514 Y114.760 E6.37241
G1 X82.744 Y112.650 E6.54631
G1 X82.284 Y112.040 E6.59456
G1 X81.944 Y111.530 E6.63326
G1 X81.524 Y110.800 E6.68644
G1 X80.284 Y108.330 E6.86096
G1 X79.974 Y107.620 E6.90988
G1 X79.764 Y107.050 E6.94824
G1 X79.524 Y106.240 E7.00159
G1 X78.894 Y103.550 E7.17605
G1 X78.754 Y102.770 E7.22609
G1 X78.684 Y102.160 E7.26486
G1 X78.644 Y101.370 E7.31481
G1 X78.644 Y98.620 E7.48846
G1 X78.684 Y97.830 E7.53841
G1 X78.754 Y97.220 E7.57718
G1 X78.894 Y96.440 E7.62722
G1 X79.524 Y93.750 E7.80168
G1 X79.764 Y92.940 E7.85502
G1 X79.974 Y92.370 E7.89338
G1 X80.284 Y91.660 E7.94230
G1 X81.524 Y89.190 E8.11682
G1 X81.944 Y88.460 E8.17000
G1 X82.284 Y87.950 E8.20871
G1 X82.744 Y87.340 E8.25695
G1 X84.514 Y85.230 E8.43086
G1 X84.943 Y84.768 E8.47066
G1 X89.986 Y95.096 F15600.000
G1 X90.616 Y95.120 F1134.000 E8.51048
G1 X91.649 Y95.497 E8.57992
G1 X92.165 Y94.080 E8.67508
G1 X92.795 Y94.104 E8.71490
G1 X94.444 Y94.705 E8.82573
G1 X94.572 Y94.123 E8.86330
G1 X94.666 Y93.813 E8.88379
G1 X94.793 Y93.515 E8.90427
G1 X94.950 Y93.231 E8.92475
G1 X95.136 Y92.965 E8.94523
G1 X95.349 Y92.721 E8.96571
G1 X95.586 Y92.499 E8.98620
G1 X95.845 Y92.304 E9.00668
G1 X96.123 Y92.137 E9.02716
G1 X96.417 Y92.000 E9.04764
G1 X96.724 Y91.894 E9.06812
G1 X97.040 Y91.821 E9.08860
G1 X97.362 Y91.782 E9.10909
G1 X97.686 Y91.776 E9.12957
G1 X98.010 Y91.804 E9.15005
G1 X98.328 Y91.866 E9.17053
G1 X98.638 Y91.961 E9.19101
G1 X98.937 Y92.088 E9.21149
G1 X99.464 Y92.364 E9.24907
G1 X100.064 Y90.715 E9.35990
G1 X100.451 Y90.216 E9.39972
G1 X101.867 Y90.732 E9.49488
G1 X102.243 Y89.699 E9.56431
G1 X102.630 Y89.200 E9.60414
G1 X104.873 Y90.017 E9.75485
G1 X104.849 Y90.647 E9.79467
G1 X104.472 Y91.680 E9.86411
G1 X105.889 Y92.196 E9.95927
G1 X105.865 Y92.826 E9.99909
G1 X105.264 Y94.475 E10.10992
G1 X105.846 Y94.603 E10.14750
G1 X106.156 Y94.697 E10.16798
G1 X106.454 Y94.824 E10.18846
G1 X106.738 Y94.981 E10.20894
G1 X107.004 Y95.167 E10.22942
G1 X107.248 Y95.380 E10.24991
G1 X107.470 Y95.617 E10.27039
G1 X107.665 Y95.876 E10.29087
G1 X107.832 Y96.154 E10.31135
G1 X107.969 Y96.448 E10.33183
G1 X108.075 Y96.755 E10.35232
G1 X108.148 Y97.071 E10.37280
G1 X108.187 Y97.393 E10.39328
G1 X108.193 Y97.717 E10.41376
G1 X108.164 Y98.041 E10.43424
G1 X108.103 Y98.359 E10.45472
G1 X108.008 Y98.669 E10.47520
G1 X107.881 Y98.968 E10.49569
G1 X107.605 Y99.495 E10.53326
G1 X109.519 Y100.191 E10.66187
G1 X109.686 Y100.775 E10.70021
G1 X109.273 Y101.911 E10.77653
G1 X110.535 Y102.370 E10.86134
G1 X110.702 Y102.954 E10.89969
G1 X110.090 Y104.636 E11.01272
G1 X109.587 Y104.976 E11.05107
G1 X108.325 Y104.516 E11.13588
G1 X107.911 Y105.652 E11.21220
G1 X107.408 Y105.992 E11.25055
G1 X105.494 Y105.295 E11.37915
G1 X105.366 Y105.877 E11.41673
G1 X105.272 Y106.187 E11.43721
G1 X105.145 Y106.485 E11.45769
G1 X104.988 Y106.769 E11.47817
G1 X104.802 Y107.035 E11.49865
G1 X104.589 Y107.279 E11.51914
G1 X104.352 Y107.501 E11.53962
G1 X104.093 Y107.696 E11.56010
G1 X103.814 Y107.863 E11.58058
G1 X103.521 Y108.000 E11.60106
G1 X103.214 Y108.106 E11.62154
G1 X102.898 Y108.179 E11.64203
G1 X102.576 Y108.218 E11.66251
G1 X102.252 Y108.224 E11.68299
G1 X101.928 Y108.195 E11.70347
G1 X101.610 Y108.134 E11.72395
G1 X101.300 Y108.039 E11.74443
G1 X101.001 Y107.912 E11.76492
G1 X100.474 Y107.636 E11.80249
G1 X99.778 Y109.550 E11.93110
G1 X99.194 Y109.717 E11.96944
G1 X98.058 Y109.304 E12.04576
G1 X97.599 Y110.566 E12.13057
G1 X97.015 Y110.733 E12.16892
G1 X95.333 Y110.121 E12.28195
G1 X94.993 Y109.618 E12.32030
G1 X95.453 Y108.356 E12.40511
G1 X94.317 Y107.942 E12.48143
G1 X93.977 Y107.439 E12.51978
G1 X94.674 Y105.525 E12.64839
G1 X94.092 Y105.397 E12.68596
G1 X93.782 Y105.303 E12.70644
G1 X93.484 Y105.176 E12.72692
G1 X93.200 Y105.019 E12.74740
G1 X92.934 Y104.833 E12.76789
G1 X92.690 Y104.620 E12.78837
G1 X92.468 Y104.383 E12.80885
G1 X92.273 Y104.124 E12.82933
G1 X92.106 Y103.845 E12.84982
G1 X91.969 Y103.552 E12.87030
G1 X91.863 Y103.245 E12.89078
G1 X91.790 Y102.929 E12.91126
G1 X91.751 Y102.607 E12.93174
G1 X91.745 Y102.283 E12.95222
G1 X91.773 Y101.959 E12.97271
G1 X91.835 Y101.641 E12.99319
G1 X91.930 Y101.331 E13.01367
G1 X92.057 Y101.032 E13.03415
G1 X92.333 Y100.505 E13.07172
G1 X90.684 Y99.905 E13.18255
G1 X90.185 Y99.518 E13.22238
G1 X90.701 Y98.102 E13.31754
G1 X89.668 Y97.726 E13.38697
G1 X89.169 Y97.339 E13.42680
G1 X89.940 Y95.222 E13.56905
G1 X90.482 Y95.486 F15600.000
G1 X83.603 Y93.663
G1 X82.501 Y101.503
G1 X83.685 Y106.496
G1 X88.188 Y113.008
G1 X94.452 Y116.638
G1 X99.463 Y117.521
G1 X100.981 Y108.854
G1 X101.393 Y109.005 F540.000 E13.59675
G1 X101.804 Y109.084 E13.62318
G1 X102.220 Y109.121 E13.64959
G1 X102.638 Y109.114 E13.67600
G1 X103.054 Y109.063 E13.70241
G1 X103.461 Y108.968 E13.72883
G1 X103.857 Y108.832 E13.75524
G1 X104.236 Y108.655 E13.78166
G1 X104.595 Y108.440 E13.80808
G1 X104.929 Y108.188 E13.83448
G1 X105.234 Y107.903 E13.86090
G1 X105.509 Y107.587 E13.88732
G1 X105.749 Y107.245 E13.91373
G1 X105.952 Y106.879 E13.94016
G1 X106.102 Y106.467 E13.96785
G1 X107.530 Y106.986 E14.06382
G1 X108.530 Y106.312 E14.13998
G1 X108.960 Y106.850 E14.18351
G1 X106.672 Y109.008 E14.38212
G1 X104.412 Y110.310 E14.54684
G1 X101.922 Y111.057 E14.71098
G1 X99.518 Y111.197 E14.86308
G1 X99.413 Y110.583 E14.90240
G1 X100.461 Y110.283 E14.97122
G1 X100.935 Y108.980 E15.05874
G1 X99.767 Y109.793 F15600.000
G1 X104.645 Y107.354
G1 X105.524 Y105.284
G1 X104.248 Y102.691
G1 X104.002 Y102.499 F540.000 E15.07848
G1 X103.718 Y102.342 E15.09896
G1 X103.420 Y102.215 E15.11945
G1 X103.109 Y102.120 E15.13993
G1 X102.538 Y101.995 E15.17687
G1 X103.219 Y100.123 E15.30267
G1 X103.737 Y100.395 E15.33961
G1 X104.036 Y100.521 E15.36009
G1 X104.346 Y100.616 E15.38057
G1 X104.665 Y100.678 E15.40105
G1 X104.977 Y100.689 E15.42080
G1 X104.294 Y102.566 E15.54691
G1 X101.962 Y97.441 F15600.000
G1 X100.088 Y96.759 F540.000 E15.67285
G1 X100.363 Y96.232 E15.71042
G1 X100.490 Y95.933 E15.73090
G1 X100.585 Y95.623 E15.75139
G1 X100.710 Y95.051 E15.78833
G1 X102.582 Y95.733 E15.91413
G1 X102.311 Y96.251 E15.95107
G1 X102.184 Y96.549 E15.97156
G1 X102.089 Y96.860 E15.99204
G1 X101.994 Y97.311 E16.02116
G1 X105.329 Y94.476 F15600.000
G1 X106.052 Y92.198
G1 X104.894 Y89.968
G1 X102.504 Y89.097
G1 X100.324 Y90.113
G1 X95.293 Y92.646
G1 X94.444 Y94.647
G1 X97.410 Y98.007
G1 X96.728 Y99.882 F540.000 E16.14710
G1 X96.201 Y99.605 E16.18467
G1 X95.902 Y99.479 E16.20515
G1 X95.592 Y99.384 E16.22563
G1 X95.020 Y99.259 E16.26257
G1 X95.702 Y97.387 E16.38838
G1 X96.220 Y97.658 E16.42531
G1 X96.518 Y97.785 E16.44579
G1 X96.829 Y97.880 E16.46628
G1 X97.280 Y97.975 E16.49540
G1 X94.444 Y94.647 F15600.000
G1 X92.788 Y94.050
G1 X92.128 Y94.025
G1 X89.988 Y94.933
G1 X89.066 Y97.465
G1 X90.082 Y99.645
G1 X92.407 Y104.453
G1 X94.682 Y105.562
G1 X97.974 Y102.569
G1 X99.846 Y103.250 F540.000 E16.62121
G1 X99.574 Y103.768 E16.65814
G1 X99.448 Y104.067 E16.67863
G1 X99.353 Y104.377 E16.69911
G1 X99.291 Y104.696 E16.71959
G1 X99.280 Y105.008 E16.73933
G1 X97.278 Y104.279 E16.87391
G1 X97.470 Y104.033 E16.89365
G1 X97.627 Y103.749 E16.91413
G1 X97.754 Y103.450 E16.93462
G1 X97.849 Y103.140 E16.95510
G1 X97.941 Y102.699 E16.98358
G1 X94.682 Y105.562 F15600.000
G1 X93.502 Y106.133
G1 X92.983 Y107.561 F540.000 E17.07956
G1 X93.698 Y108.622 E17.16036
G1 X93.338 Y108.967 E17.19187
G1 X92.268 Y108.173 E17.27597
G1 X90.589 Y106.171 E17.44096
G1 X89.418 Y103.845 E17.60543
G1 X88.817 Y101.299 E17.77056
G1 X88.817 Y99.586 E17.87875
G1 X90.247 Y100.696 E17.99304
G1 X91.114 Y101.012 E18.05134
G1 X90.964 Y101.424 E18.07904
G1 X90.885 Y101.834 E18.10546
G1 X90.848 Y102.251 E18.13187
G1 X90.855 Y102.669 E18.15829
G1 X90.906 Y103.085 E18.18470
G1 X91.001 Y103.492 E18.21112
G1 X91.137 Y103.888 E18.23753
G1 X91.314 Y104.267 E18.26394
G1 X91.529 Y104.626 E18.29037
G1 X91.781 Y104.960 E18.31677
G1 X92.066 Y105.266 E18.34319
G1 X92.382 Y105.540 E18.36960
G1 X92.724 Y105.780 E18.39602
G1 X93.090 Y105.983 E18.42244
G1 X93.377 Y106.087 E18.44168
G1 X94.682 Y105.562 F15600.000
G1 X92.407 Y104.453
G1 X90.082 Y99.645
G1 X89.066 Y97.465
G1 X89.988 Y94.933
G1 X92.128 Y94.025
G1 X92.788 Y94.050
G1 X93.836 Y93.533
G1 X92.969 Y93.218 F540.000 E18.49998
G1 X91.158 Y93.149 E18.61438
G1 X92.264 Y91.834 E18.72290
G1 X94.345 Y90.282 E18.88679
G1 X96.751 Y89.243 E19.05229
G1 X99.312 Y88.791 E19.21652
G1 X100.379 Y88.853 E19.28399
G1 X99.273 Y90.278 E19.39787
G1 X98.957 Y91.145 E19.45617
G1 X98.545 Y90.995 E19.48387
G1 X98.135 Y90.916 E19.51029
G1 X97.718 Y90.879 E19.53670
G1 X97.300 Y90.886 E19.56312
G1 X96.884 Y90.937 E19.58953
G1 X96.477 Y91.032 E19.61594
G1 X96.081 Y91.168 E19.64236
G1 X95.702 Y91.345 E19.66878
G1 X95.344 Y91.560 E19.69519
G1 X95.010 Y91.812 E19.72159
G1 X94.703 Y92.097 E19.74802
G1 X94.429 Y92.413 E19.77443
G1 X94.189 Y92.755 E19.80085
G1 X93.986 Y93.121 E19.82727
G1 X93.882 Y93.408 E19.84651
G1 X92.788 Y94.050 F15600.000
G1 X95.293 Y92.646
G1 X100.324 Y90.113
G1 X102.504 Y89.097
G1 X104.894 Y89.968
G1 X106.052 Y92.198
G1 X105.470 Y94.496
G1 X106.436 Y93.867
G1 X106.751 Y93.000 F540.000 E19.90482
G1 X106.822 Y91.132 E20.02281
G1 X108.568 Y92.781 E20.17444
G1 X110.004 Y94.959 E20.33916
G1 X110.895 Y97.412 E20.50397
G1 X111.258 Y100.528 E20.70204
G1 X110.583 Y100.663 E20.74552
G1 X110.252 Y99.508 E20.82138
G1 X108.823 Y98.988 E20.91736
G1 X108.974 Y98.576 E20.94506
G1 X109.053 Y98.165 E20.97148
G1 X109.090 Y97.749 E20.99789
G1 X109.083 Y97.330 E21.02431
G1 X109.032 Y96.915 E21.05071
G1 X108.937 Y96.508 E21.07713
G1 X108.801 Y96.112 E21.10355
G1 X108.624 Y95.733 E21.12997
G1 X108.409 Y95.374 E21.15638
G1 X108.157 Y95.040 E21.18279
G1 X107.872 Y94.734 E21.20921
G1 X107.556 Y94.460 E21.23562
G1 X107.214 Y94.220 E21.26203
G1 X106.848 Y94.017 E21.28845
G1 X106.561 Y93.913 E21.30770
G1 X108.620 Y91.602 F15600.000
G1 X109.917 Y91.164 F1134.000 E21.39415
G1 X110.769 Y90.938 E21.44984
G1 X110.399 Y91.737 E21.50546
G1 X109.742 Y92.940 E21.59201
G1 X110.324 Y93.823 E21.65880
G1 X111.687 Y93.696 E21.74523
G1 X112.568 Y93.672 E21.80089
G1 X112.023 Y94.365 E21.85655
G1 X111.107 Y95.383 E21.94298
G1 X111.469 Y96.377 E22.00978
G1 X112.825 Y96.568 E22.09628
G1 X113.688 Y96.749 E22.15197
G1 X112.998 Y97.297 E22.20764
G1 X111.871 Y98.076 E22.29414
G1 X111.993 Y99.127 E22.36093
G1 X113.270 Y99.625 E22.44745
G1 X114.068 Y100.000 E22.50311
G1 X113.270 Y100.375 E22.55876
G1 X111.993 Y100.873 E22.64529
G1 X111.871 Y101.924 E22.71208
G1 X112.998 Y102.703 E22.79857
G1 X113.688 Y103.251 E22.85425
G1 X112.825 Y103.432 E22.90994
G1 X111.468 Y103.623 E22.99650
G1 X111.107 Y104.617 E23.06326
G1 X112.023 Y105.635 E23.14970
G1 X112.568 Y106.328 E23.20536
G1 X111.687 Y106.304 E23.26101
G1 X110.325 Y106.177 E23.34739
G1 X109.742 Y107.061 E23.41422
G1 X110.399 Y108.263 E23.50074
G1 X110.769 Y109.062 E23.55636
G1 X109.917 Y108.836 E23.61204
G1 X108.620 Y108.398 E23.69849
G1 X107.850 Y109.124 E23.76531
G1 X108.213 Y110.445 E23.85178
G1 X108.388 Y111.308 E23.90743
G1 X107.611 Y110.893 E23.96306
G1 X106.449 Y110.167 E24.04956
G1 X105.533 Y110.695 E24.11632
G1 X105.581 Y112.065 E24.20289
G1 X105.553 Y112.946 E24.25857
G1 X104.893 Y112.362 E24.31423
G1 X103.931 Y111.387 E24.40074
G1 X102.917 Y111.691 E24.46754
G1 X102.647 Y113.034 E24.55402
G1 X102.417 Y113.885 E24.60970
G1 X101.910 Y113.164 E24.66536
G1 X101.198 Y111.994 E24.75187
G1 X100.141 Y112.055 E24.81871
G1 X99.570 Y113.300 E24.90524
G1 X99.149 Y114.075 E24.96087
G1 X98.822 Y113.257 E25.01650
G1 X98.399 Y111.954 E25.10299
G1 X97.356 Y111.770 E25.16987
G1 X96.513 Y112.849 E25.25631
G1 X95.925 Y113.506 E25.31196
G1 X95.796 Y112.635 E25.36760
G1 X95.683 Y111.269 E25.45413
G1 X94.712 Y110.850 E25.52092
G1 X93.643 Y111.706 E25.60742
G1 X92.919 Y112.210 E25.66309
G1 X92.994 Y111.332 E25.71879
G1 X93.201 Y109.976 E25.80535
G1 X92.352 Y109.346 E25.87211
G1 X91.115 Y109.932 E25.95854
G1 X90.294 Y110.255 E26.01422
G1 X90.569 Y109.417 E26.06991
G1 X91.082 Y108.147 E26.15638
G1 X90.402 Y107.337 E26.22314
G1 X89.062 Y107.622 E26.30969
G1 X88.190 Y107.747 E26.36528
G1 X88.651 Y106.996 E26.42094
G1 X89.443 Y105.879 E26.50741
G1 X88.966 Y104.933 E26.57425
G1 X87.598 Y104.901 E26.66067
G1 X86.721 Y104.822 E26.71629
G1 X87.342 Y104.197 E26.77192
G1 X88.370 Y103.292 E26.85840
G1 X88.127 Y102.264 E26.92511
G1 X86.802 Y101.916 E27.01167
G1 X85.966 Y101.637 E27.06733
G1 X86.715 Y101.172 E27.12298
G1 X87.924 Y100.529 E27.20950
G1 X87.924 Y99.471 E27.27631
G1 X86.715 Y98.828 E27.36282
G1 X85.966 Y98.363 E27.41847
G1 X86.802 Y98.084 E27.47413
G1 X88.127 Y97.736 E27.56070
G1 X88.370 Y96.708 E27.62741
G1 X87.342 Y95.803 E27.71389
G1 X86.721 Y95.178 E27.76952
G1 X87.598 Y95.099 E27.82514
G1 X88.968 Y95.067 E27.91165
G1 X89.442 Y94.121 E27.97848
G1 X88.651 Y93.004 E28.06489
G1 X88.190 Y92.253 E28.12054
G1 X89.062 Y92.378 E28.17614
G1 X90.401 Y92.663 E28.26258
G1 X91.082 Y91.853 E28.32939
G1 X90.569 Y90.583 E28.41587
G1 X90.294 Y89.745 E28.47156
