; generated by Slic3r 0.9.10b on 2013-09-12 at 14:42:54

; layer_height = 0.03
; perimeters = 3
; top_solid_layers = 3
; bottom_solid_layers = 3
; fill_density = 0.4
; perimeter_speed = 30
; infill_speed = 60
; travel_speed = 130
; nozzle_diameter = 0.5
; filament_diameter = 3
; extrusion_multiplier = 1
; perimeters extrusion width = 0.85mm
; infill extrusion width = 6.55mm
; solid infill extrusion width = 0.85mm
; top infill extrusion width = 0.85mm
; first layer extrusion width = 0.12mm

G21 ; set units to millimeters
M107
M104 S200 ; set temperature
G28 ; home all axes
G1 Z5 F5000 ; lift nozzle
M109 S200 ; wait for temperature to be reached
G90 ; use absolute coordinates
G92 E0
M82 ; use absolute distances for extrusion
G1 F1800.000 E-0.50000
G92 E0
G1 Z0.060 F7800.000
G1 X87.219 Y88.386
G1 F1800.000 E0.50000
G1 X87.700 Y87.956 F540.000 E0.50110
G1 X89.219 Y86.716 E0.50446
G1 X89.730 Y86.346 E0.50554
G1 X90.260 Y86.026 E0.50660
G1 X91.989 Y85.106 E0.50995
G1 X92.560 Y84.837 E0.51103
G1 X93.139 Y84.626 E0.51208
G1 X95.019 Y84.057 E0.51544
G1 X95.629 Y83.906 E0.51652
G1 X96.260 Y83.816 E0.51761
G1 X98.200 Y83.626 E0.52094
G1 X98.819 Y83.596 E0.52200
G1 X99.450 Y83.626 E0.52308
G1 X101.399 Y83.816 E0.52643
G1 X102.030 Y83.906 E0.52752
G1 X102.640 Y84.057 E0.52860
G1 X104.519 Y84.626 E0.53196
G1 X105.099 Y84.837 E0.53301
G1 X105.670 Y85.106 E0.53409
G1 X107.399 Y86.026 E0.53744
G1 X107.940 Y86.346 E0.53852
G1 X108.450 Y86.727 E0.53961
G1 X109.959 Y87.966 E0.54295
G1 X110.429 Y88.386 E0.54403
G1 X110.849 Y88.846 E0.54509
G1 X112.099 Y90.367 E0.54846
G1 X112.480 Y90.886 E0.54956
G1 X112.799 Y91.427 E0.55064
G1 X113.720 Y93.156 E0.55399
G1 X113.989 Y93.727 E0.55507
G1 X114.200 Y94.307 E0.55612
G1 X114.769 Y96.186 E0.55948
G1 X114.920 Y96.796 E0.56056
G1 X115.010 Y97.427 E0.56165
G1 X115.200 Y99.376 E0.56500
G1 X115.230 Y99.996 E0.56606
G1 X115.200 Y100.617 E0.56712
G1 X115.010 Y102.566 E0.57047
G1 X114.920 Y103.197 E0.57156
G1 X114.769 Y103.807 E0.57264
G1 X114.200 Y105.687 E0.57600
G1 X113.989 Y106.266 E0.57705
G1 X113.720 Y106.837 E0.57813
G1 X112.799 Y108.566 E0.58149
G1 X112.470 Y109.117 E0.58258
G1 X112.080 Y109.637 E0.58369
G1 X110.830 Y111.147 E0.58705
G1 X110.429 Y111.596 E0.58808
G1 X109.980 Y111.997 E0.58911
G1 X108.470 Y113.247 E0.59246
G1 X107.950 Y113.637 E0.59357
G1 X107.399 Y113.967 E0.59467
G1 X105.670 Y114.887 E0.59802
G1 X105.099 Y115.156 E0.59910
G1 X104.519 Y115.367 E0.60016
G1 X102.640 Y115.937 E0.60352
G1 X102.030 Y116.087 E0.60459
G1 X101.399 Y116.177 E0.60568
G1 X99.450 Y116.367 E0.60903
G1 X98.829 Y116.397 E0.61010
G1 X98.209 Y116.367 E0.61116
G1 X96.260 Y116.177 E0.61451
G1 X95.629 Y116.087 E0.61560
G1 X95.019 Y115.937 E0.61667
G1 X93.139 Y115.367 E0.62003
G1 X92.560 Y115.156 E0.62109
G1 X91.989 Y114.887 E0.62217
G1 X90.260 Y113.967 E0.62552
G1 X89.719 Y113.647 E0.62659
G1 X89.200 Y113.266 E0.62770
G1 X87.679 Y112.016 E0.63106
G1 X87.219 Y111.596 E0.63213
G1 X86.799 Y111.126 E0.63321
G1 X85.560 Y109.617 E0.63655
G1 X85.179 Y109.107 E0.63764
G1 X84.859 Y108.566 E0.63871
G1 X83.939 Y106.837 E0.64206
G1 X83.669 Y106.266 E0.64314
G1 X83.459 Y105.687 E0.64420
G1 X82.889 Y103.807 E0.64756
G1 X82.739 Y103.197 E0.64863
G1 X82.649 Y102.566 E0.64972
G1 X82.459 Y100.617 E0.65307
G1 X82.429 Y99.996 E0.65414
G1 X82.459 Y99.376 E0.65520
G1 X82.649 Y97.427 E0.65855
G1 X82.739 Y96.796 E0.65964
G1 X82.889 Y96.186 E0.66071
G1 X83.459 Y94.307 E0.66407
G1 X83.669 Y93.727 E0.66513
G1 X83.939 Y93.156 E0.66621
G1 X84.859 Y91.427 E0.66956
G1 X85.179 Y90.897 E0.67062
G1 X85.549 Y90.386 E0.67170
G1 X86.789 Y88.867 E0.67505
G1 X87.199 Y88.409 E0.67610
G1 X87.359 Y88.526 F7800.000
G1 X87.829 Y88.106 F540.000 E0.67718
G1 X89.349 Y86.867 E0.68054
G1 X89.840 Y86.507 E0.68158
G1 X90.359 Y86.197 E0.68261
G1 X92.090 Y85.276 E0.68597
G1 X92.629 Y85.026 E0.68698
G1 X93.200 Y84.826 E0.68802
G1 X95.079 Y84.257 E0.69138
G1 X95.669 Y84.106 E0.69242
G1 X96.279 Y84.016 E0.69348
G1 X98.219 Y83.826 E0.69681
G1 X98.819 Y83.796 E0.69784
G1 X99.429 Y83.826 E0.69888
G1 X101.379 Y84.016 E0.70223
G1 X101.989 Y84.106 E0.70329
G1 X102.580 Y84.257 E0.70433
G1 X104.459 Y84.826 E0.70769
G1 X105.030 Y85.026 E0.70873
G1 X105.569 Y85.276 E0.70974
G1 X107.299 Y86.197 E0.71310
G1 X107.830 Y86.516 E0.71415
G1 X108.330 Y86.886 E0.71522
G1 X109.839 Y88.126 E0.71856
G1 X110.280 Y88.526 E0.71958
G1 X110.690 Y88.977 E0.72062
G1 X111.940 Y90.496 E0.72399
G1 X112.310 Y90.996 E0.72505
G1 X112.629 Y91.526 E0.72611
G1 X113.549 Y93.257 E0.72946
G1 X113.799 Y93.796 E0.73048
G1 X114.000 Y94.367 E0.73151
G1 X114.569 Y96.246 E0.73488
G1 X114.720 Y96.837 E0.73592
G1 X114.810 Y97.447 E0.73697
G1 X115.000 Y99.397 E0.74032
G1 X115.030 Y99.996 E0.74135
G1 X115.000 Y100.596 E0.74238
G1 X114.810 Y102.546 E0.74573
G1 X114.720 Y103.156 E0.74679
G1 X114.569 Y103.747 E0.74783
G1 X114.000 Y105.626 E0.75119
G1 X113.799 Y106.197 E0.75222
G1 X113.549 Y106.736 E0.75324
G1 X112.629 Y108.467 E0.75659
G1 X112.299 Y109.006 E0.75767
G1 X111.929 Y109.506 E0.75874
G1 X110.679 Y111.016 E0.76209
G1 X110.289 Y111.456 E0.76310
G1 X109.849 Y111.846 E0.76410
G1 X108.339 Y113.096 E0.76746
G1 X107.839 Y113.467 E0.76852
G1 X107.299 Y113.796 E0.76960
G1 X105.569 Y114.717 E0.77296
G1 X105.030 Y114.967 E0.77397
G1 X104.459 Y115.167 E0.77501
G1 X102.580 Y115.736 E0.77837
G1 X101.989 Y115.887 E0.77941
G1 X101.379 Y115.977 E0.78047
G1 X99.429 Y116.167 E0.78382
G1 X98.829 Y116.197 E0.78484
G1 X98.230 Y116.167 E0.78587
G1 X96.279 Y115.977 E0.78922
G1 X95.669 Y115.887 E0.79028
G1 X95.079 Y115.736 E0.79132
G1 X93.200 Y115.167 E0.79468
G1 X92.629 Y114.967 E0.79571
G1 X92.090 Y114.717 E0.79673
G1 X90.359 Y113.796 E0.80009
G1 X89.829 Y113.477 E0.80114
G1 X89.329 Y113.107 E0.80221
G1 X87.810 Y111.857 E0.80558
G1 X87.359 Y111.447 E0.80662
G1 X86.959 Y111.006 E0.80763
G1 X85.719 Y109.497 E0.81098
G1 X85.349 Y108.997 E0.81204
G1 X85.029 Y108.467 E0.81310
G1 X84.109 Y106.736 E0.81645
G1 X83.859 Y106.197 E0.81747
G1 X83.659 Y105.626 E0.81850
G1 X83.090 Y103.747 E0.82186
G1 X82.939 Y103.156 E0.82291
G1 X82.849 Y102.546 E0.82396
G1 X82.659 Y100.596 E0.82731
G1 X82.629 Y99.996 E0.82834
G1 X82.659 Y99.397 E0.82937
G1 X82.849 Y97.447 E0.83272
G1 X82.939 Y96.837 E0.83378
G1 X83.090 Y96.246 E0.83482
G1 X83.659 Y94.367 E0.83818
G1 X83.859 Y93.796 E0.83921
G1 X84.109 Y93.257 E0.84023
G1 X85.029 Y91.526 E0.84358
G1 X85.340 Y91.007 E0.84462
G1 X85.700 Y90.516 E0.84566
G1 X86.939 Y88.996 E0.84901
G1 X87.339 Y88.549 E0.85004
G1 F1800.000 E0.35004
G92 E0
G1 X92.118 Y93.285 F7800.000
G1 F1800.000 E0.50000
G1 X93.557 Y92.103 F540.000 E0.50319
G1 X95.199 Y91.225 E0.50637
G1 X96.980 Y90.685 E0.50956
G1 X98.833 Y90.503 E0.51274
G1 X100.687 Y90.685 E0.51593
G1 X102.468 Y91.225 E0.51911
G1 X104.110 Y92.103 E0.52230
G1 X105.549 Y93.285 E0.52548
G1 X106.730 Y94.724 E0.52867
G1 X107.608 Y96.365 E0.53185
G1 X108.149 Y98.147 E0.53504
G1 X108.331 Y100.000 E0.53822
G1 X108.149 Y101.853 E0.54141
G1 X107.608 Y103.635 E0.54459
G1 X106.731 Y105.276 E0.54778
G1 X105.549 Y106.715 E0.55096
G1 X104.110 Y107.897 E0.55415
G1 X102.468 Y108.775 E0.55734
G1 X100.687 Y109.315 E0.56052
G1 X98.833 Y109.497 E0.56370
G1 X96.980 Y109.315 E0.56689
G1 X95.199 Y108.775 E0.57007
G1 X93.557 Y107.897 E0.57326
G1 X92.118 Y106.715 E0.57645
G1 X90.936 Y105.276 E0.57963
G1 X90.059 Y103.635 E0.58282
G1 X89.518 Y101.853 E0.58600
G1 X89.336 Y100.000 E0.58919
G1 X89.518 Y98.147 E0.59237
G1 X90.059 Y96.365 E0.59556
G1 X90.936 Y94.724 E0.59874
G1 X92.098 Y93.308 E0.60188
G1 X91.974 Y93.141 F7800.000
G1 X93.444 Y91.935 F540.000 E0.60513
G1 X95.122 Y91.038 E0.60838
G1 X96.941 Y90.486 E0.61163
G1 X98.834 Y90.300 E0.61489
G1 X100.726 Y90.486 E0.61814
G1 X102.545 Y91.038 E0.62139
G1 X104.223 Y91.935 E0.62465
G1 X105.693 Y93.141 E0.62790
G1 X106.899 Y94.611 E0.63115
G1 X107.795 Y96.288 E0.63441
G1 X108.348 Y98.108 E0.63766
G1 X108.534 Y100.000 E0.64091
G1 X108.348 Y101.892 E0.64417
G1 X107.795 Y103.712 E0.64742
G1 X106.899 Y105.389 E0.65067
G1 X105.693 Y106.859 E0.65393
G1 X104.223 Y108.065 E0.65718
G1 X102.545 Y108.962 E0.66043
G1 X100.726 Y109.514 E0.66368
G1 X98.833 Y109.700 E0.66694
G1 X96.941 Y109.514 E0.67019
G1 X95.122 Y108.962 E0.67344
G1 X93.444 Y108.065 E0.67670
G1 X91.974 Y106.859 E0.67995
G1 X90.768 Y105.389 E0.68320
G1 X89.872 Y103.712 E0.68646
G1 X89.319 Y101.892 E0.68971
G1 X89.133 Y100.000 E0.69296
G1 X89.319 Y98.108 E0.69622
G1 X89.872 Y96.288 E0.69947
G1 X90.768 Y94.611 E0.70272
G1 X91.955 Y93.165 E0.70592
G1 X91.831 Y92.998 F7800.000
G1 X93.332 Y91.767 F378.000 E0.70925
G1 X95.044 Y90.851 E0.71257
G1 X96.901 Y90.288 E0.71589
G1 X98.833 Y90.098 E0.71921
G1 X100.766 Y90.288 E0.72253
G1 X102.623 Y90.851 E0.72585
G1 X104.335 Y91.767 E0.72917
G1 X105.836 Y92.998 E0.73249
G1 X107.067 Y94.499 E0.73581
G1 X107.982 Y96.210 E0.73913
G1 X108.546 Y98.068 E0.74246
G1 X108.736 Y100.000 E0.74578
G1 X108.546 Y101.932 E0.74910
G1 X107.982 Y103.790 E0.75242
G1 X107.067 Y105.501 E0.75574
G1 X105.836 Y107.002 E0.75906
G1 X104.335 Y108.233 E0.76238
G1 X102.623 Y109.149 E0.76570
G1 X100.766 Y109.712 E0.76902
G1 X98.833 Y109.902 E0.77235
G1 X96.901 Y109.712 E0.77567
G1 X95.044 Y109.149 E0.77899
G1 X93.332 Y108.233 E0.78231
G1 X91.831 Y107.002 E0.78563
G1 X90.600 Y105.501 E0.78895
G1 X89.685 Y103.790 E0.79227
G1 X89.121 Y101.932 E0.79559
G1 X88.931 Y100.000 E0.79892
G1 X89.121 Y98.068 E0.80224
G1 X89.685 Y96.210 E0.80556
G1 X90.600 Y94.499 E0.80888
G1 X91.812 Y93.021 E0.81215
G1 X92.024 Y93.057 F7800.000
G1 X90.972 Y105.033
G1 X93.800 Y107.861 F1080.000 E0.81899
G1 X94.413 Y108.189 E0.82018
G1 X90.645 Y104.421 E0.82930
G1 X90.317 Y103.808 E0.83049
G1 X95.026 Y108.516 E0.84189
G1 X95.511 Y108.717 E0.84279
G1 X90.117 Y103.323 E0.85585
G1 X89.993 Y102.913 E0.85658
G1 X95.921 Y108.841 E0.87093
G1 X96.330 Y108.965 E0.87166
G1 X89.868 Y102.503 E0.88730
G1 X89.744 Y102.094 E0.88804
G1 X96.739 Y109.089 E0.90497
G1 X97.117 Y109.182 E0.90564
G1 X89.651 Y101.716 E0.92371
G1 X89.620 Y101.400 E0.92425
G1 X97.433 Y109.213 E0.94316
G1 X97.749 Y109.244 E0.94371
G1 X89.589 Y101.084 E0.96346
G1 X89.558 Y100.767 E0.96401
G1 X98.066 Y109.275 E0.98460
G1 X98.382 Y109.306 E0.98515
G1 X89.527 Y100.451 E1.00658
G1 X89.496 Y100.135 E1.00713
G1 X98.698 Y109.337 E1.02940
G1 X98.982 Y109.336 E1.02989
G1 X89.497 Y99.851 E1.05285
G1 X89.523 Y99.591 E1.05330
G1 X99.242 Y109.310 E1.07682
G1 X99.502 Y109.285 E1.07727
G1 X89.548 Y99.331 E1.10137
G1 X89.574 Y99.072 E1.10181
G1 X99.761 Y109.259 E1.12647
G1 X100.021 Y109.234 E1.12692
G1 X89.599 Y98.812 E1.15215
G1 X89.625 Y98.553 E1.15259
G1 X100.280 Y109.208 E1.17839
G1 X100.540 Y109.183 E1.17883
G1 X89.650 Y98.293 E1.20520
G1 X89.698 Y98.056 E1.20561
G1 X100.777 Y109.135 E1.23243
G1 X100.996 Y109.068 E1.23282
G1 X89.765 Y97.837 E1.26001
G1 X89.831 Y97.618 E1.26040
G1 X101.215 Y109.002 E1.28796
G1 X101.434 Y108.936 E1.28835
G1 X89.898 Y97.400 E1.31628
G1 X89.964 Y97.181 E1.31667
G1 X101.653 Y108.869 E1.34496
G1 X101.872 Y108.803 E1.34535
G1 X90.031 Y96.962 E1.37402
G1 X90.097 Y96.743 E1.37441
G1 X102.090 Y108.737 E1.40344
G1 X102.309 Y108.670 E1.40383
G1 X90.163 Y96.524 E1.43324
G1 X90.247 Y96.323 E1.43361
G1 X102.510 Y108.586 E1.46329
G1 X102.696 Y108.487 E1.46366
G1 X90.347 Y96.137 E1.49355
G1 X90.446 Y95.951 E1.49391
G1 X102.882 Y108.388 E1.52402
G1 X103.068 Y108.288 E1.52438
G1 X90.545 Y95.766 E1.55469
G1 X90.645 Y95.580 E1.55505
G1 X103.254 Y108.189 E1.58558
G1 X103.440 Y108.090 E1.58594
G1 X90.744 Y95.394 E1.61667
G1 X90.843 Y95.208 E1.61703
G1 X103.625 Y107.990 E1.64797
G1 X103.811 Y107.891 E1.64833
G1 X90.943 Y95.022 E1.67948
G1 X91.042 Y94.836 E1.67985
G1 X103.997 Y107.791 E1.71121
G1 X104.159 Y107.668 E1.71155
G1 X91.166 Y94.675 E1.74301
G1 X91.294 Y94.518 E1.74335
G1 X104.315 Y107.539 E1.77488
G1 X104.472 Y107.411 E1.77522
G1 X91.423 Y94.361 E1.80681
G1 X91.551 Y94.205 E1.80716
G1 X104.629 Y107.282 E1.83882
G1 X104.785 Y107.154 E1.83916
G1 X91.680 Y94.048 E1.87089
G1 X91.808 Y93.891 E1.87123
G1 X104.942 Y107.025 E1.90303
G1 X105.099 Y106.897 E1.90337
G1 X91.937 Y93.735 E1.93524
G1 X92.065 Y93.578 E1.93558
G1 X105.255 Y106.768 E1.96751
G1 X105.412 Y106.640 E1.96786
G1 X92.194 Y93.422 E1.99986
G1 X92.345 Y93.287 E2.00020
G1 X105.547 Y106.489 E2.03216
G1 X105.675 Y106.332 E2.03251
G1 X92.501 Y93.158 E2.06440
G1 X92.658 Y93.030 E2.06474
G1 X105.804 Y106.176 E2.09657
G1 X105.932 Y106.019 E2.09691
G1 X92.815 Y92.901 E2.12867
G1 X92.971 Y92.773 E2.12901
G1 X106.061 Y105.862 E2.16070
G1 X106.189 Y105.706 E2.16105
G1 X93.128 Y92.644 E2.19267
G1 X93.284 Y92.516 E2.19301
G1 X106.318 Y105.549 E2.22456
G1 X106.446 Y105.392 E2.22491
G1 X93.441 Y92.387 E2.25639
G1 X93.598 Y92.259 E2.25674
G1 X106.575 Y105.236 E2.28815
G1 X106.682 Y105.058 E2.28851
G1 X93.776 Y92.152 E2.31975
G1 X93.962 Y92.052 E2.32011
G1 X106.781 Y104.872 E2.35114
G1 X106.880 Y104.686 E2.35150
G1 X94.148 Y91.953 E2.38233
G1 X94.334 Y91.854 E2.38269
G1 X106.980 Y104.500 E2.41330
G1 X107.079 Y104.314 E2.41366
G1 X94.519 Y91.754 E2.44407
G1 X94.705 Y91.655 E2.44443
G1 X107.178 Y104.128 E2.47462
G1 X107.278 Y103.942 E2.47498
G1 X94.891 Y91.556 E2.50497
G1 X95.077 Y91.456 E2.50533
G1 X107.377 Y103.757 E2.53510
G1 X107.475 Y103.569 E2.53547
G1 X95.264 Y91.358 E2.56503
G1 X95.483 Y91.292 E2.56542
G1 X107.541 Y103.351 E2.59461
G1 X107.608 Y103.132 E2.59500
G1 X95.702 Y91.225 E2.62382
G1 X95.920 Y91.159 E2.62421
G1 X107.674 Y102.913 E2.65267
G1 X107.741 Y102.694 E2.65306
G1 X96.139 Y91.093 E2.68114
G1 X96.358 Y91.026 E2.68153
G1 X107.807 Y102.476 E2.70925
G1 X107.874 Y102.257 E2.70964
G1 X96.577 Y90.960 E2.73699
G1 X96.796 Y90.894 E2.73738
G1 X107.940 Y102.038 E2.76436
G1 X108.006 Y101.818 E2.76475
G1 X97.016 Y90.828 E2.79135
G1 X97.275 Y90.803 E2.79180
G1 X108.031 Y101.559 E2.81784
G1 X108.057 Y101.299 E2.81828
G1 X97.535 Y90.777 E2.84375
G1 X97.794 Y90.752 E2.84420
G1 X108.082 Y101.039 E2.86910
G1 X108.108 Y100.780 E2.86955
G1 X98.054 Y90.726 E2.89389
G1 X98.314 Y90.701 E2.89433
G1 X108.133 Y100.520 E2.91810
G1 X108.159 Y100.260 E2.91855
G1 X98.573 Y90.675 E2.94175
G1 X98.833 Y90.650 E2.94220
G1 X108.184 Y100.001 E2.96484
G1 X108.154 Y99.685 E2.96538
G1 X99.149 Y90.681 E2.98718
G1 X99.466 Y90.712 E2.98772
G1 X108.122 Y99.368 E3.00868
G1 X108.091 Y99.052 E3.00922
G1 X99.782 Y90.743 E3.02934
G1 X100.098 Y90.774 E3.02988
G1 X108.060 Y98.736 E3.04915
G1 X108.029 Y98.420 E3.04970
G1 X100.414 Y90.805 E3.06813
G1 X100.752 Y90.857 E3.06872
G1 X107.976 Y98.082 E3.08620
G1 X107.852 Y97.672 E3.08694
G1 X101.162 Y90.982 E3.10313
G1 X101.571 Y91.106 E3.10387
G1 X107.728 Y97.263 E3.11877
G1 X107.603 Y96.853 E3.11950
G1 X101.980 Y91.230 E3.13311
G1 X102.390 Y91.354 E3.13385
G1 X107.479 Y96.443 E3.14617
G1 X107.162 Y95.842 E3.14733
G1 X102.991 Y91.671 E3.15743
G1 X103.604 Y91.999 E3.15862
G1 X106.835 Y95.229 E3.16644
G1 X106.207 Y94.316 F7800.000
G1 X104.518 Y92.627 F1080.000 E3.17053
G1 X92.019 Y106.365 F7800.000
G1 X92.468 Y106.814 F1080.000 E3.17161
M106 S255
G1 F1800.000 E2.67161
G92 E0
G1 Z0.090 F7800.000
G1 X93.258 Y105.575
G1 F1800.000 E0.50000
G1 X92.278 Y104.380 F600.000 E0.50553
G1 X91.549 Y103.017 E0.51107
G1 X91.100 Y101.538 E0.51660
G1 X90.949 Y100.000 E0.52214
G1 X91.100 Y98.462 E0.52767
G1 X91.549 Y96.983 E0.53320
G1 X92.278 Y95.620 E0.53873
G1 X93.258 Y94.425 E0.54427
G1 X94.453 Y93.444 E0.54980
G1 X95.817 Y92.715 E0.55534
G1 X97.295 Y92.267 E0.56087
G1 X98.833 Y92.116 E0.56640
G1 X100.372 Y92.267 E0.57194
G1 X101.850 Y92.715 E0.57747
G1 X103.214 Y93.444 E0.58301
G1 X104.409 Y94.425 E0.58854
G1 X105.389 Y95.620 E0.59407
G1 X106.118 Y96.983 E0.59961
G1 X106.567 Y98.462 E0.60514
G1 X106.718 Y100.000 E0.61067
G1 X106.567 Y101.538 E0.61621
G1 X106.118 Y103.017 E0.62174
G1 X105.389 Y104.380 E0.62728
G1 X104.409 Y105.575 E0.63281
G1 X103.214 Y106.556 E0.63834
G1 X101.850 Y107.285 E0.64388
G1 X100.372 Y107.733 E0.64941
G1 X98.833 Y107.884 E0.65494
G1 X97.295 Y107.733 E0.66048
G1 X95.817 Y107.285 E0.66601
G1 X94.453 Y106.556 E0.67155
G1 X93.356 Y105.655 E0.67663
G1 X92.659 Y106.174 F7800.000
G1 X91.573 Y104.851 F600.000 E0.68276
G1 X90.766 Y103.342 E0.68888
G1 X90.269 Y101.703 E0.69501
